Newaita/actions/32/draw-calligraphic.svg

<svg height="32" viewBox="0 0 32 32" width="32" xmlns="http://www.w3.org/2000/svg"><path d="m26.367188 5.796875c-1.8125-1.816406-4.734376-1.816406-6.546876 0l-9.121093 9.121094-6.550781 4.675781.136718 6.65625c-.066406.230469-.066406.472656-.003906.699219l4.15625-4.160157c-.351562-.738281-.222656-1.644531.390625-2.257812.777344-.777344 2.027344-.777344 2.804687 0 .777344.777344.777344 2.027344 0 2.804688-.613281.613281-1.519531.742187-2.257812.390624l-4.160156 4.15625c.226562.0625.46875.0625.699218-.003906l6.65625.136719 4.675782-6.550781 9.121094-9.121094c1.816406-1.8125 1.816406-4.734375 0-6.546875zm-1.871094 1.871094c.777344.777343.777344 2.027343 0 2.804687l-5.378906 5.378906-2.804688-2.804687 5.378906-5.378906c.777344-.777344 2.027344-.777344 2.804688 0zm-9.121094 6.3125 2.808594 2.808593-2.808594 2.804688-2.804688-2.804688zm0 0" fill="#424242"/></svg>

<?xml version="1.0" encoding="UTF-8"?>
<svg xmlns="http://www.w3.org/2000/svg" xmlns:xlink="http://www.w3.org/1999/xlink" width="32px" height="32px" viewBox="0 0 32 32" version="1.1">
<g id="surface1">
<path style=" stroke:none;fill-rule:nonzero;fill:rgb(25.882354%,25.882354%,25.882354%);fill-opacity:1;" d="M 26.367188 5.796875 C 24.554688 3.980469 21.632812 3.980469 19.820312 5.796875 L 10.699219 14.917969 L 4.148438 19.59375 L 4.285156 26.25 C 4.21875 26.480469 4.21875 26.722656 4.28125 26.949219 L 8.4375 22.789062 C 8.085938 22.050781 8.214844 21.144531 8.828125 20.53125 C 9.605469 19.753906 10.855469 19.753906 11.632812 20.53125 C 12.410156 21.308594 12.410156 22.558594 11.632812 23.335938 C 11.019531 23.949219 10.113281 24.078125 9.375 23.726562 L 5.214844 27.882812 C 5.441406 27.945312 5.683594 27.945312 5.914062 27.878906 L 12.570312 28.015625 L 17.246094 21.464844 L 26.367188 12.34375 C 28.183594 10.53125 28.183594 7.609375 26.367188 5.796875 Z M 24.496094 7.667969 C 25.273438 8.445312 25.273438 9.695312 24.496094 10.472656 L 19.117188 15.851562 L 16.3125 13.046875 L 21.691406 7.667969 C 22.46875 6.890625 23.71875 6.890625 24.496094 7.667969 Z M 15.375 13.980469 L 18.183594 16.789062 L 15.375 19.59375 L 12.570312 16.789062 Z M 15.375 13.980469 "/>
</g>
</svg>
